svg/color/mpl.svg

<svg viewBox="0 0 55 45" fill="none" xmlns="http://www.w3.org/2000/svg">
<g clip-path="url(#clip0_8547_221734)">
<path fill-rule="evenodd" clip-rule="evenodd" d="M29.4577 26.5102C32.3589 26.4327 35.2506 26.1439 38.1099 25.6461C38.3158 25.6088 38.5275 25.6171 38.7298 25.6706C38.9322 25.7241 39.1203 25.8214 39.281 25.9556C39.4416 26.0898 39.5708 26.2577 39.6594 26.4473C39.748 26.6369 39.7939 26.8437 39.7937 27.053V32.4703C35.6887 33.3056 31.5088 33.7176 27.3196 33.7C17.4599 33.7 8.83 31.5619 4.05526 28.3603C2.53845 27.4474 1.31272 26.1218 0.521283 24.5383C0.234554 23.9201 0.0834319 23.2477 0.078125 22.5663C0.100578 21.5171 0.436251 20.4986 1.04196 19.6417C1.09229 19.5634 1.15959 19.4975 1.23886 19.4487C1.31813 19.4 1.40734 19.3697 1.49989 19.3602C1.59245 19.3506 1.68597 19.362 1.77354 19.3934C1.8611 19.4249 1.94048 19.4757 2.00577 19.542C2.5369 20.0691 3.11128 20.5509 3.72289 20.9821C6.43388 22.7565 9.43275 24.046 12.5855 24.7931C16.7168 25.8442 20.9531 26.4276 25.2147 26.5324V29.2133C25.2147 29.4912 25.2695 29.7663 25.3758 30.023C25.4821 30.2798 25.638 30.513 25.8345 30.7095C26.031 30.906 26.2642 31.0618 26.5209 31.1682C26.7776 31.2745 27.0528 31.3293 27.3307 31.3293C27.891 31.3263 28.4275 31.1025 28.8237 30.7063C29.2199 30.3101 29.4437 29.7736 29.4466 29.2133L29.4577 26.5102Z" fill="#C4C4C4"/>
<path fill-rule="evenodd" clip-rule="evenodd" d="M29.4577 26.5102C32.3589 26.4327 35.2506 26.1439 38.1099 25.6461C38.3158 25.6088 38.5275 25.6171 38.7298 25.6706C38.9322 25.7241 39.1203 25.8214 39.281 25.9556C39.4416 26.0898 39.5708 26.2577 39.6594 26.4473C39.748 26.6369 39.7939 26.8437 39.7937 27.053V32.4703C35.6887 33.3056 31.5088 33.7176 27.3196 33.7C17.4599 33.7 8.83 31.5619 4.05526 28.3603C2.53845 27.4474 1.31272 26.1218 0.521283 24.5383C0.234554 23.9201 0.0834319 23.2477 0.078125 22.5663C0.100578 21.5171 0.436251 20.4986 1.04196 19.6417C1.09229 19.5634 1.15959 19.4975 1.23886 19.4487C1.31813 19.4 1.40734 19.3697 1.49989 19.3602C1.59245 19.3506 1.68597 19.362 1.77354 19.3934C1.8611 19.4249 1.94048 19.4757 2.00577 19.542C2.5369 20.0691 3.11128 20.5509 3.72289 20.9821C6.43388 22.7565 9.43275 24.046 12.5855 24.7931C16.7168 25.8442 20.9531 26.4276 25.2147 26.5324V29.2133C25.2147 29.4912 25.2695 29.7663 25.3758 30.023C25.4821 30.2798 25.638 30.513 25.8345 30.7095C26.031 30.906 26.2642 31.0618 26.5209 31.1682C26.7776 31.2745 27.0528 31.3293 27.3307 31.3293C27.891 31.3263 28.4275 31.1025 28.8237 30.7063C29.2199 30.3101 29.4437 29.7736 29.4466 29.2133L29.4577 26.5102Z" fill="#FF7900"/>
<path fill-rule="evenodd" clip-rule="evenodd" d="M54.5498 22.4998C54.5485 23.1972 54.3934 23.8856 54.0956 24.5161C53.2949 26.0781 52.0751 27.3862 50.5727 28.2938C48.5286 29.5939 46.3139 30.6043 43.9922 31.296V25.1808C43.9897 24.8842 44.0803 24.5942 44.2512 24.3518C44.4221 24.1093 44.6647 23.9266 44.9449 23.8292C47.0496 23.1377 49.0481 22.1572 50.8829 20.9156C51.5039 20.4835 52.0859 19.9979 52.6222 19.4644C52.6875 19.3981 52.7668 19.3473 52.8544 19.3159C52.942 19.2844 53.0355 19.273 53.1281 19.2826C53.2206 19.2922 53.3098 19.3224 53.3891 19.3712C53.4684 19.4199 53.5357 19.4858 53.586 19.5641C54.1988 20.4216 54.5351 21.4459 54.5498 22.4998Z" fill="#C4C4C4"/>
<path fill-rule="evenodd" clip-rule="evenodd" d="M54.5498 22.4998C54.5485 23.1972 54.3934 23.8856 54.0956 24.5161C53.2949 26.0781 52.0751 27.3862 50.5727 28.2938C48.5286 29.5939 46.3139 30.6043 43.9922 31.296V25.1808C43.9897 24.8842 44.0803 24.5942 44.2512 24.3518C44.4221 24.1093 44.6647 23.9266 44.9449 23.8292C47.0496 23.1377 49.0481 22.1572 50.8829 20.9156C51.5039 20.4835 52.0859 19.9979 52.6222 19.4644C52.6875 19.3981 52.7668 19.3473 52.8544 19.3159C52.942 19.2844 53.0355 19.273 53.1281 19.2826C53.2206 19.2922 53.3098 19.3224 53.3891 19.3712C53.4684 19.4199 53.5357 19.4858 53.586 19.5641C54.1988 20.4216 54.5351 21.4459 54.5498 22.4998Z" fill="#FF7900"/>
<path fill-rule="evenodd" clip-rule="evenodd" d="M54.5495 33.8775C54.5458 34.571 54.3908 35.2553 54.0952 35.8827C53.2946 37.4446 52.0747 38.7527 50.5724 39.6604C45.7755 42.862 37.1455 45.0001 27.308 45.0001C17.4704 45.0001 8.81825 42.862 4.04351 39.6604C2.52671 38.7475 1.30098 37.4219 0.509531 35.8384C0.223037 35.224 0.0719213 34.5553 0.0664062 33.8775C0.0873343 32.8246 0.423013 31.8021 1.03022 30.9418C1.08055 30.8635 1.14784 30.7976 1.22712 30.7488C1.30639 30.7001 1.39559 30.6698 1.48815 30.6602C1.5807 30.6507 1.67423 30.662 1.76179 30.6935C1.84936 30.725 1.92873 30.7758 1.99402 30.8421C2.52275 31.3719 3.09736 31.8538 3.71114 32.2822C6.41966 34.0612 9.41936 35.3511 12.5738 36.0932C17.3872 37.3011 22.3344 37.893 27.2969 37.8546C31.486 37.8728 35.666 37.4607 39.771 36.6249V38.8406C39.7696 39.1189 39.8233 39.3947 39.9291 39.652C40.0349 39.9094 40.1907 40.1433 40.3875 40.3401C40.5843 40.5368 40.8181 40.6926 41.0755 40.7984C41.3329 40.9043 41.6087 40.958 41.887 40.9565C42.1649 40.9565 42.44 40.9018 42.6967 40.7955C42.9534 40.6891 43.1867 40.5333 43.3832 40.3368C43.5797 40.1403 43.7355 39.907 43.8418 39.6503C43.9482 39.3936 44.0029 39.1184 44.0029 38.8406V35.5171C46.4468 34.7987 48.7667 33.7116 50.8825 32.2933C51.5087 31.868 52.0913 31.3819 52.6218 30.8421C52.6882 30.7756 52.7684 30.7248 52.8568 30.6933C52.9453 30.6618 53.0396 30.6504 53.133 30.66C53.2264 30.6695 53.3164 30.6998 53.3967 30.7485C53.4769 30.7973 53.5453 30.8633 53.5967 30.9418C54.2012 31.8028 54.5331 32.8256 54.5495 33.8775Z" fill="#C4C4C4"/>
<path fill-rule="evenodd" clip-rule="evenodd" d="M54.5495 33.8775C54.5458 34.571 54.3908 35.2553 54.0952 35.8827C53.2946 37.4446 52.0747 38.7527 50.5724 39.6604C45.7755 42.862 37.1455 45.0001 27.308 45.0001C17.4704 45.0001 8.81825 42.862 4.04351 39.6604C2.52671 38.7475 1.30098 37.4219 0.509531 35.8384C0.223037 35.224 0.0719213 34.5553 0.0664062 33.8775C0.0873343 32.8246 0.423013 31.8021 1.03022 30.9418C1.08055 30.8635 1.14784 30.7976 1.22712 30.7488C1.30639 30.7001 1.39559 30.6698 1.48815 30.6602C1.5807 30.6507 1.67423 30.662 1.76179 30.6935C1.84936 30.725 1.92873 30.7758 1.99402 30.8421C2.52275 31.3719 3.09736 31.8538 3.71114 32.2822C6.41966 34.0612 9.41936 35.3511 12.5738 36.0932C17.3872 37.3011 22.3344 37.893 27.2969 37.8546C31.486 37.8728 35.666 37.4607 39.771 36.6249V38.8406C39.7696 39.1189 39.8233 39.3947 39.9291 39.652C40.0349 39.9094 40.1907 40.1433 40.3875 40.3401C40.5843 40.5368 40.8181 40.6926 41.0755 40.7984C41.3329 40.9043 41.6087 40.958 41.887 40.9565C42.1649 40.9565 42.44 40.9018 42.6967 40.7955C42.9534 40.6891 43.1867 40.5333 43.3832 40.3368C43.5797 40.1403 43.7355 39.907 43.8418 39.6503C43.9482 39.3936 44.0029 39.1184 44.0029 38.8406V35.5171C46.4468 34.7987 48.7667 33.7116 50.8825 32.2933C51.5087 31.868 52.0913 31.3819 52.6218 30.8421C52.6882 30.7756 52.7684 30.7248 52.8568 30.6933C52.9453 30.6618 53.0396 30.6504 53.133 30.66C53.2264 30.6695 53.3164 30.6998 53.3967 30.7485C53.4769 30.7973 53.5453 30.8633 53.5967 30.9418C54.2012 31.8028 54.5331 32.8256 54.5495 33.8775Z" fill="#FF7900"/>
<path fill-rule="evenodd" clip-rule="evenodd" d="M54.5495 11.1337C54.5447 11.8579 54.3821 12.5724 54.0731 13.2275C53.3027 14.6942 52.1556 15.9293 50.7496 16.8058C49.5875 17.5885 48.352 18.2563 47.0605 18.7998C41.4324 20.9966 35.4541 22.16 29.4128 22.2341V19.254C29.4121 18.4051 29.6647 17.5752 30.1384 16.8706C30.612 16.166 31.2851 15.6189 32.0716 15.2991L34.9963 14.1027C37.4889 13.1942 39.0731 11.8316 39.0731 10.325C39.0731 7.56646 33.7998 5.32865 27.2969 5.32865C20.7939 5.32865 15.5207 7.5443 15.5207 10.325C15.5207 11.8316 17.1049 13.1942 19.5975 14.1027L22.5332 15.2991C23.3188 15.6201 23.9911 16.1676 24.4646 16.8719C24.9381 17.5762 25.1913 18.4054 25.192 19.254V22.2341C19.1237 22.1683 13.1178 21.0009 7.46675 18.7888C6.18403 18.2462 4.95614 17.5821 3.79984 16.8058C2.3956 15.9272 1.24894 14.6927 0.476358 13.2275C0.167359 12.5724 0.00480777 11.8579 0 11.1337C0 4.98522 12.1861 0 27.2415 0C42.2969 0 54.5495 4.98522 54.5495 11.1337Z" fill="#C4C4C4"/>
<path fill-rule="evenodd" clip-rule="evenodd" d="M54.5495 11.1337C54.5447 11.8579 54.3821 12.5724 54.0731 13.2275C53.3027 14.6942 52.1556 15.9293 50.7496 16.8058C49.5875 17.5885 48.352 18.2563 47.0605 18.7998C41.4324 20.9966 35.4541 22.16 29.4128 22.2341V19.254C29.4121 18.4051 29.6647 17.5752 30.1384 16.8706C30.612 16.166 31.2851 15.6189 32.0716 15.2991L34.9963 14.1027C37.4889 13.1942 39.0731 11.8316 39.0731 10.325C39.0731 7.56646 33.7998 5.32865 27.2969 5.32865C20.7939 5.32865 15.5207 7.5443 15.5207 10.325C15.5207 11.8316 17.1049 13.1942 19.5975 14.1027L22.5332 15.2991C23.3188 15.6201 23.9911 16.1676 24.4646 16.8719C24.9381 17.5762 25.1913 18.4054 25.192 19.254V22.2341C19.1237 22.1683 13.1178 21.0009 7.46675 18.7888C6.18403 18.2462 4.95614 17.5821 3.79984 16.8058C2.3956 15.9272 1.24894 14.6927 0.476358 13.2275C0.167359 12.5724 0.00480777 11.8579 0 11.1337C0 4.98522 12.1861 0 27.2415 0C42.2969 0 54.5495 4.98522 54.5495 11.1337Z" fill="#FF7900"/>
</g>
<defs>
<clipPath id="clip0_8547_221734">
<rect width="55" height="45" fill="white"/>
</clipPath>
</defs>
</svg>

<svg xmlns="http://www.w3.org/2000/svg" fill="none" viewBox="0 0 55 45"><g fill-rule="evenodd" clip-path="url(#mpl_svg-a)" clip-rule="evenodd"><path fill="#C4C4C4" d="M29.458 26.51a60 60 0 0 0 8.652-.864 1.43 1.43 0 0 1 1.684 1.407v5.417A61.3 61.3 0 0 1 27.32 33.7c-9.86 0-18.49-2.138-23.265-5.34a9.33 9.33 0 0 1-3.534-3.822 4.8 4.8 0 0 1-.443-1.972 5.26 5.26 0 0 1 .964-2.924.62.62 0 0 1 .964-.1 13.4 13.4 0 0 0 1.717 1.44 28 28 0 0 0 8.863 3.811 57 57 0 0 0 12.629 1.74v2.68a2.116 2.116 0 0 0 2.116 2.116 2.127 2.127 0 0 0 2.116-2.116z"/><path fill="#FF7900" d="M29.458 26.51a60 60 0 0 0 8.652-.864 1.43 1.43 0 0 1 1.684 1.407v5.417A61.3 61.3 0 0 1 27.32 33.7c-9.86 0-18.49-2.138-23.265-5.34a9.33 9.33 0 0 1-3.534-3.822 4.8 4.8 0 0 1-.443-1.972 5.26 5.26 0 0 1 .964-2.924.62.62 0 0 1 .964-.1 13.4 13.4 0 0 0 1.717 1.44 28 28 0 0 0 8.863 3.811 57 57 0 0 0 12.629 1.74v2.68a2.116 2.116 0 0 0 2.116 2.116 2.127 2.127 0 0 0 2.116-2.116z"/><path fill="#C4C4C4" d="M54.55 22.5a4.7 4.7 0 0 1-.454 2.016 9.45 9.45 0 0 1-3.523 3.778 26.2 26.2 0 0 1-6.58 3.002v-6.115a1.42 1.42 0 0 1 .952-1.352 24 24 0 0 0 5.938-2.913 13 13 0 0 0 1.74-1.452.62.62 0 0 1 .963.1c.613.858.95 1.882.964 2.936"/><path fill="#FF7900" d="M54.55 22.5a4.7 4.7 0 0 1-.454 2.016 9.45 9.45 0 0 1-3.523 3.778 26.2 26.2 0 0 1-6.58 3.002v-6.115a1.42 1.42 0 0 1 .952-1.352 24 24 0 0 0 5.938-2.913 13 13 0 0 0 1.74-1.452.62.62 0 0 1 .963.1c.613.858.95 1.882.964 2.936"/><path fill="#C4C4C4" d="M54.55 33.878a4.8 4.8 0 0 1-.455 2.005 9.45 9.45 0 0 1-3.523 3.777C45.775 42.862 37.145 45 27.308 45s-18.49-2.138-23.264-5.34A9.33 9.33 0 0 1 .51 35.838a4.7 4.7 0 0 1-.444-1.96 5.27 5.27 0 0 1 .964-2.936.62.62 0 0 1 .964-.1q.795.796 1.717 1.44a27.7 27.7 0 0 0 8.863 3.811 58.6 58.6 0 0 0 14.723 1.762 61.2 61.2 0 0 0 12.474-1.23v2.216a2.106 2.106 0 0 0 2.116 2.115 2.116 2.116 0 0 0 2.116-2.115v-3.324a25 25 0 0 0 6.88-3.224 11.5 11.5 0 0 0 1.739-1.45.632.632 0 0 1 .975.099c.604.86.936 1.884.953 2.935"/><path fill="#FF7900" d="M54.55 33.878a4.8 4.8 0 0 1-.455 2.005 9.45 9.45 0 0 1-3.523 3.777C45.775 42.862 37.145 45 27.308 45s-18.49-2.138-23.264-5.34A9.33 9.33 0 0 1 .51 35.838a4.7 4.7 0 0 1-.444-1.96 5.27 5.27 0 0 1 .964-2.936.62.62 0 0 1 .964-.1q.795.796 1.717 1.44a27.7 27.7 0 0 0 8.863 3.811 58.6 58.6 0 0 0 14.723 1.762 61.2 61.2 0 0 0 12.474-1.23v2.216a2.106 2.106 0 0 0 2.116 2.115 2.116 2.116 0 0 0 2.116-2.115v-3.324a25 25 0 0 0 6.88-3.224 11.5 11.5 0 0 0 1.739-1.45.632.632 0 0 1 .975.099c.604.86.936 1.884.953 2.935"/><path fill="#C4C4C4" d="M54.55 11.134a5 5 0 0 1-.477 2.093 9.33 9.33 0 0 1-3.323 3.579 21.6 21.6 0 0 1-3.69 1.994 50.2 50.2 0 0 1-17.647 3.434v-2.98a4.27 4.27 0 0 1 2.659-3.955l2.924-1.196c2.493-.909 4.077-2.271 4.077-3.778 0-2.759-5.273-4.996-11.776-4.996S15.52 7.544 15.52 10.325c0 1.507 1.584 2.87 4.076 3.778l2.936 1.196a4.28 4.28 0 0 1 2.659 3.955v2.98A50.1 50.1 0 0 1 7.467 18.79 22 22 0 0 1 3.8 16.806a9.4 9.4 0 0 1-3.324-3.579A5 5 0 0 1 0 11.135C0 4.985 12.186 0 27.242 0 42.296 0 54.55 4.985 54.55 11.134"/><path fill="#FF7900" d="M54.55 11.134a5 5 0 0 1-.477 2.093 9.33 9.33 0 0 1-3.323 3.579 21.6 21.6 0 0 1-3.69 1.994 50.2 50.2 0 0 1-17.647 3.434v-2.98a4.27 4.27 0 0 1 2.659-3.955l2.924-1.196c2.493-.909 4.077-2.271 4.077-3.778 0-2.759-5.273-4.996-11.776-4.996S15.52 7.544 15.52 10.325c0 1.507 1.584 2.87 4.076 3.778l2.936 1.196a4.28 4.28 0 0 1 2.659 3.955v2.98A50.1 50.1 0 0 1 7.467 18.79 22 22 0 0 1 3.8 16.806a9.4 9.4 0 0 1-3.324-3.579A5 5 0 0 1 0 11.135C0 4.985 12.186 0 27.242 0 42.296 0 54.55 4.985 54.55 11.134"/></g><defs><clipPath id="mpl_svg-a"><path fill="#fff" d="M0 0h55v45H0z"/></clipPath></defs></svg>
